icon_installer/data/icons/scalable/actions/show-window-sound-source-symbolic.svg

<?xml version="1.0" encoding="UTF-8"?>
<svg height="16px" viewBox="0 0 16 16" width="16px" xmlns="http://www.w3.org/2000/svg">
    <g fill="#222222">
        <path d="m 10.957031 4.558594 c -0.101562 0.011718 -0.203125 0.054687 -0.28125 0.125 c -0.207031 0.179687 -0.226562 0.5 -0.046875 0.707031 c 0.9375 1.0625 1.378906 2.183594 1.378906 3.324219 c 0 1.136718 -0.445312 2.316406 -1.390624 3.46875 c -0.171876 0.214844 -0.140626 0.527344 0.070312 0.703125 c 0.214844 0.175781 0.53125 0.144531 0.703125 -0.070313 c 1.0625 -1.292968 1.617187 -2.699218 1.617187 -4.101562 s -0.558593 -2.777344 -1.628906 -3.988282 c -0.105468 -0.121093 -0.261718 -0.183593 -0.421875 -0.167968 z m -1.445312 1.214844 c -0.105469 0.003906 -0.207031 0.039062 -0.289063 0.105468 c -0.21875 0.167969 -0.261718 0.480469 -0.09375 0.699219 c 0.585938 0.765625 0.867188 1.488281 0.875 2.195313 c 0.007813 0.703124 -0.253906 1.425781 -0.871094 2.203124 c -0.167968 0.21875 -0.132812 0.53125 0.082032 0.703126 c 0.21875 0.167968 0.53125 0.132812 0.703125 -0.082032 c 0.722656 -0.914062 1.097656 -1.871094 1.085937 -2.835937 c -0.011718 -0.964844 -0.398437 -1.90625 -1.082031 -2.792969 c -0.09375 -0.125 -0.25 -0.199219 -0.410156 -0.195312 z m 0 0"/>
        <path d="m 2.015625 0 c -1.214844 0 -2 0.828125 -2 2 v 2.027344 h 13.984375 v 9.972656 h -14 c 0 1.015625 1.011719 2.003906 1.992188 2.003906 l 12.007812 -0.003906 c 1 0 2 -1 2 -2 v -12 c 0 -1.238281 -0.828125 -2 -2 -2 z m 0 0"/>
        <path d="m 7.992188 6 l 0.003906 6 c 0 0.195312 -0.109375 0.378906 -0.28125 0.472656 c -0.175782 0.09375 -0.386719 0.082032 -0.550782 -0.027344 l -1.773437 -1.183593 c -0.257813 -0.171875 -0.554687 -0.261719 -0.863281 -0.261719 h -0.519532 c -0.554687 0 -1.007812 -0.453125 -1.007812 -1.007812 v -2.003907 c 0 -0.550781 0.449219 -1 1 -1 h 0.566406 c 0.289063 0 0.574219 -0.085937 0.816406 -0.246093 l 1.773438 -1.1875 c 0.164062 -0.109376 0.378906 -0.121094 0.550781 -0.027344 c 0.175781 0.09375 0.285157 0.273437 0.285157 0.472656 z m 0 0"/>
        <path d="m 0.976562 2.957031 c 0.542969 0 0.980469 0.4375 0.980469 0.976563 v 10.039062 c 0 0.542969 -0.4375 0.980469 -0.980469 0.980469 c -0.539062 0 -0.976562 -0.4375 -0.976562 -0.980469 v -10.039062 c 0 -0.539063 0.4375 -0.976563 0.976562 -0.976563 z m 0 0"/>
    </g>
</svg>

<svg xmlns="http://www.w3.org/2000/svg" width="16" height="16"><g fill="#222"><path d="M10.957 4.559a.504.504 0 0 0-.328.832c.937 1.062 1.379 2.183 1.379 3.324 0 1.137-.445 2.316-1.39 3.469a.505.505 0 0 0 .07.703.497.497 0 0 0 .703-.07c1.062-1.294 1.617-2.7 1.617-4.102s-.559-2.778-1.63-3.988a.494.494 0 0 0-.421-.168zM9.512 5.773a.485.485 0 0 0-.29.106.498.498 0 0 0-.093.7c.586.765.867 1.487.875 2.194.008.704-.254 1.426-.871 2.204a.505.505 0 0 0 .082.703.505.505 0 0 0 .703-.082c.723-.914 1.098-1.871 1.086-2.836-.012-.965-.399-1.907-1.082-2.793a.502.502 0 0 0-.41-.196zm0 0"/><path d="M2.016 0c-1.215 0-2 .828-2 2v2.027H14V14H0c0 1.016 1.012 2.004 1.992 2.004L14 16c1 0 2-1 2-2V2c0-1.238-.828-2-2-2zm0 0"/><path d="m7.992 6 .004 6c0 .195-.11.379-.281.473a.536.536 0 0 1-.55-.028L5.39 11.262A1.547 1.547 0 0 0 4.527 11h-.52A1.01 1.01 0 0 1 3 9.992V7.988c0-.55.45-1 1-1h.566c.29 0 .575-.086.817-.246l1.773-1.187A.537.537 0 0 1 7.992 6zM.977 2.957c.543 0 .98.438.98.977v10.039a.979.979 0 1 1-1.957 0V3.933c0-.538.438-.976.977-.976zm0 0"/></g></svg>
